X:186
T:Reel 186
M:4/4
K:Gmaj
L:1/8
gb/2a/2ed |gbd'b afaf|gbag fee2|gbab gbaf|edef gbaf|gbag fddf|egfa gedc'|bc'ba gfed|egfa g2g2|bgga b>d' (3bc'd' |ac'd'b c'bc'a|b>g (3ggg b>d' (3d'c'd' |c'afa g2ga|b>d' (3d'e'd' e'c'd'c'|bc'd'b c'baf|gbbd' e'd'd'c'|bgaf g2g|
